!!!!SEGMENT: pl-wn--mus-1100_zelenski-wladyslaw--pije-kuba-do-jakuba.krn
!!!cenid: 18xx:3644
!!!COM: Żeleński, Władysław
!!!COM-rismID: pe41024455
!!!CDT: 1837/07/06-1921/01/23
!!!CNT: Polish
!!!OTL: Pije Kuba do Jakuba
!!!PDT:
!!!AGN:
!!!YEC: Copyright 2022 Narodowy Instytut Fryderyka Chopina (https://polishscores.org)
!!!YEM: License CC-BY-4.0 (https://creativecommons.org/licenses/by/4.0)
!!!SMS-siglum: PL-Wn
!!!SMS-shelfmark: Mus.1100
!!!SMS-shelfwork: W
!!!SMS-variant:
!!!SMS-altvar:
!!!NIFC-rismSourceID:
!!!NIFC-rismChildID:
!!!NIFC-islandoraID: none
!!!URL-pdf-islandora:
!!!URL-scan: https://polona2.pl/item/pije-kuba-do-jakuba,NDU2MjY2OTc/1 @EN{Scan on Polona} @PL{Skany w portalu Polona}
!!!IIIF: https://polona2.pl/iiif/item/NDU2MjY2OTc/manifest.json
!!!ONB-nifc:
!!!AIN: 1 alto 1 barit 1 bass 1 soprn
!!!key: B-
**kern	**text	**text	**dynam	**kern	**text	**dynam	**kern	**text	**dynam	**kern	**text	**text	**dynam
*part4	*	*	*	*part3	*	*	*part2	*	*	*part1	*	*	*
*staff4	*	*	*	*staff3	*	*	*staff2	*	*	*staff1	*	*	*
*I"[Basso]	*	*	*	*I"[Baritone]	*	*	*I"[Alto]	*	*	*I"[Canto]	*	*	*
*Ibass	*	*	*	*Ibarit	*	*	*Ialto	*	*	*Isoprn	*	*	*
*ICvox	*	*	*	*ICvox	*	*	*ICvox	*	*	*ICvox	*	*	*
*IGcoro	*	*	*	*IGcoro	*	*	*IGcoro	*	*	*IGcoro	*	*	*
*>[A,B,B]	*>[A,B,B]	*>[A,B,B]	*>[A,B,B]	*>[A,B,B]	*>[A,B,B]	*>[A,B,B]	*>[A,B,B]	*>[A,B,B]	*>[A,B,B]	*>[A,B,B]	*>[A,B,B]	*>[A,B,B]	*>[A,B,B]
*>A	*>A	*>A	*>A	*>A	*>A	*>A	*>A	*>A	*>A	*>A	*>A	*>A	*>A
*clefF4	*	*	*	*clefF4	*	*	*clefG2	*	*	*clefG2	*	*	*
*k[b-e-]	*	*	*	*k[b-e-]	*	*	*k[b-e-]	*	*	*k[b-e-]	*	*	*
*B-:	*	*	*	*B-:	*	*	*B-:	*	*	*B-:	*	*	*
*M2/4	*	*	*	*M2/4	*	*	*M2/4	*	*	*M2/4	*	*	*
=1	=1	=1	=1	=1	=1	=1	=1	=1	=1	=1	=1	=1	=1
*xywh-#2:526,2203,5320,1090	*	*	*	*xywh-#2:637,1792,5141,790	*	*	*xywh-#2:524,1136,5285,872	*	*	*xywh-#2:568,459,5278,948	*	*	*
!	!	!	!	!LO:TX:a:i:t=leggiero	!	!	!	!	!	!LO:TX:a:i:t=Allegretto	!	!	!
8B-\	.	.	.	8B-'\	Pi-	.	2ryy	.	.	2r	.	.	.
8B-\	.	.	.	8B-'\	-je	.	.	.	.	.	.	.	.
8A\	.	.	.	8A'\	Ku-	.	.	.	.	.	.	.	.
8F\	.	.	.	8F'\	-ba	.	.	.	.	.	.	.	.
=2	=2	=2	=2	=2	=2	=2	=2	=2	=2	=2	=2	=2	=2
8B-\	.	.	.	8B-\	do	.	2ryy	.	.	2r	.	.	.
8B-\	.	.	.	8B-\	Ja-	.	.	.	.	.	.	.	.
8A\	.	.	.	8A\	-ku-	.	.	.	.	.	.	.	.
8F\	.	.	.	8F\	-ba	.	.	.	.	.	.	.	.
=3	=3	=3	=3	=3	=3	=3	=3	=3	=3	=3	=3	=3	=3
8G\	.	.	.	8G\	Ja-	.	2ryy	.	.	2r	.	.	.
8G\	.	.	.	8G\	-kub	.	.	.	.	.	.	.	.
8A\	.	.	.	8A\	do	.	.	.	.	.	.	.	.
8A\	.	.	.	8A\	Mi-	.	.	.	.	.	.	.	.
=4	=4	=4	=4	=4	=4	=4	=4	=4	=4	=4	=4	=4	=4
4B-\	.	.	.	4B-\	-cha-	.	2ryy	.	.	2r	.	.	.
8B-\	.	.	.	8B-\	-ła	.	.	.	.	.	.	.	.
8r	.	.	.	8r	.	.	.	.	.	.	.	.	.
=5	=5	=5	=5	=5	=5	=5	=5	=5	=5	=5	=5	=5	=5
!	!	!	!LO:DY:b:rj	!	!	!LO:DY:b	!	!	!LO:DY:b	!	!	!	!LO:DY:a
2BB-\	pi-	ża-	p	8B-\	Dzi-	p	8b-\	.	p	(4dd\	Pi-	Dzi-	p
!	!	!	!LO:HP:b	!	!	!LO:HP:b	!	!	!	!	!	!	!
.	.	.	<	8B-\	-siaj	<	8b-\	.	.	.	.	.	.
!	!	!	!	!	!	!	!	!	!LO:HP:b	!	!	!	!LO:HP:a
.	.	.	.	8A\L	ża-	.	8a\L	.	<	8cc\)	-jesz	.	<
.	.	.	.	8F\J	-by	.	8f\J	.	.	16ff\LL	ty	-siaj	.
.	.	.	.	.	.	.	.	.	.	16ee-\JJ	.	.	.
=6	=6	=6	=6	=6	=6	=6	=6	=6	=6	=6	=6	=6	=6
2BB-\	-je	-by	.	8B-\	i	.	8b-\	.	.	(8dd\	pi-	ża-	.
.	.	.	.	8B-\	śli-	.	8b-\	.	.	8dd\	-je	.	.
.	.	.	[	8A\L	-ma-	.	8a\L	.	.	8cc\L)	on	.	.
!	!	!	!	!	!	!	!LO:TX:t=P:problem=skreślone 8a-	!	!	!	!	!	!
.	.	.	.	8A-X\J	-ki	[	8fJ\	.	[	8dd\J	.	-by	[
!!LO:LB:g=original
=7	=7	=7	=7	=7	=7	=7	=7	=7	=7	=7	=7	=7	=7
*xywh-#2:627,4688,5294,921	*	*	*	*xywh-#2:605,4373,5210,690	*	*	*xywh-#2:676,3652,5082,828	*	*	*xywh-#2:642,3120,5231,827	*	*	*
!	!	!	!LO:HP:b	!	!	!LO:HP:b	!LO:TX:t=P:problem=skreślone 8g	!	!LO:HP:b	!	!	!	!LO:HP:a
8BB-\	.	.	>	8G\	je-	>	8b-\	.	>	8ee-\	kom-	je-	>
!	!	!	!	!	!	!	!LO:TX:t=P:problem=skreślone 8g	!	!	!	!	!	!
8BB-\	.	.	.	8G\	-dzą	.	8b-\	.	.	8ee-\	-pa-	-dzą	.
8BB-\	.	.	.	8F\	jak	.	8an\	.	.	8cc\	-ni-	jak	.
8BB-\	.	.	.	8E-\	bo-	.	8a\	.	.	8cc\	-ja	bo-	.
=8	=8	=8	=8	=8	=8	=8	=8	=8	=8	=8	=8	=8	=8
!	!	!	!	!	!	!	!LO:TX:t=P:problem=skreślone 8b-	!	!	!	!	!	!
8BB-\	.	.	.	8D\	-cia-	.	8f\	.	.	8b-\	ca-	-cia-	.
!	!	!	!	!	!	!	!LO:TX:t=P:problem=skreślone 8b-	!	!	!	!	!	!
8BB-\	.	.	]	8D\	-ny	]	8f\	.	]	8b-\	-ła	-ny	]
4r	.	.	.	4r	.	]	4r	.	.	4r	.	.	.
=9!|:	=9!|:	=9!|:	=9!|:	=9!|:	=9!|:	=9!|:	=9!|:	=9!|:	=9!|:	=9!|:	=9!|:	=9!|:	=9!|:
*>B	*>B	*>B	*>B	*>B	*>B	*>B	*>B	*>B	*>B	*>B	*>B	*>B	*>B
!	!	!	!LO:DY:b	!	!	!LO:DY:a	!	!	!LO:DY:b	!LO:TX:a:t=Vivo	!	!	!LO:DY:a:rj
8.BB-/	.	.	f	8.D\	Kto	f	8.f\	.	f	8.b-\	A	.	f
16BB-/	.	.	.	16F\	ża-	.	16b-\	.	.	16dd\	kto	.	.
8BB-/	.	.	.	8F\	-ba-	.	8b-\	.	.	8dd\	nie	.	.
8BB-/	.	.	.	8B-\	-mi	.	8dd\	.	.	8ff\	wy-	.	.
=10	=10	=10	=10	=10	=10	=10	=10	=10	=10	=10	=10	=10	=10
4F\	.	.	.	4A\	ży-	.	4cc\	.	.	8ff\L	-pi-	.	.
.	.	.	.	.	.	.	.	.	.	8ee-\J	.	.	.
4F\	.	.	.	4A\	-je	.	4cc\	.	.	4cc\	-je	.	.
=11	=11	=11	=11	=11	=11	=11	=11	=11	=11	=11	=11	=11	=11
8.BB-/	.	.	.	8.D\	te-	.	8.f/	.	.	8.b-\	Te-	.	.
16BB-/	.	.	.	16F\	-go	.	16b-/	.	.	16dd\	-go	.	.
8BB-/	.	.	.	8F\	we	.	8b-\	.	.	8dd\	we	.	.
8BB-/	.	.	.	8B-\	dwa	.	8dd\	.	.	8ff\	dwa	.	.
=12	=12	=12	=12	=12	=12	=12	=12	=12	=12	=12	=12	=12	=12
4F\	.	.	.	4A\	ki-	.	4cc\	.	.	8ff\L	ki-	.	.
.	.	.	.	.	.	.	.	.	.	8ee-\J	.	.	.
4F\	.	.	.	4A\	-je	.	4cc\	.	.	4cc\	-je	.	.
!!LO:LB:g=original
=13	=13	=13	=13	=13	=13	=13	=13	=13	=13	=13	=13	=13	=13
*xywh-#2:605,7138,5315,1169	*	*	*	*xywh-#2:632,6858,5236,637	*	*	*xywh-#2:644,6130,5253,783	*	*	*xywh-#2:616,5617,5299,721	*	*	*
!	!	!	!	!	!	!	!	!	!LO:DY:a	!LO:TX:a:i:t=Tempo Iº	!	!	!
2r	.	.	.	2r	.	.	8b-\	Łu-	p	2r	.	.	.
.	.	.	.	.	.	.	8b-\	-pu!	.	.	.	.	.
.	.	.	.	.	.	.	8a\	cu-	.	.	.	.	.
.	.	.	.	.	.	.	8f\	-pu!	.	.	.	.	.
=14	=14	=14	=14	=14	=14	=14	=14	=14	=14	=14	=14	=14	=14
!	!	!	!	!	!	!	!	!	!	!	!	!	!LO:DY:a
2r	.	.	.	2r	.	.	8g\	.	.	8ee-\	Łu-	.	p
.	.	.	.	.	.	.	8a\	.	.	8ee-\	-pu!	.	.
!	!	!	!	!	!	!	!	!	!	!LO:TX:a:i:t=cresc. e stringendo	!	!	!
.	.	.	.	.	.	.	8b-\	.	.	8dd\	cu-	.	.
.	.	.	.	.	.	.	8b-\	.	.	8b-\	-pu!	.	.
=15	=15	=15	=15	=15	=15	=15	=15	=15	=15	=15	=15	=15	=15
!	!	!	!	!LO:TX:b:i:t=cresc. e stringendo	!	!	!	!	!LO:HP:b	!	!	!	!
8A-X\	.	.	.	8A-X\	.	.	8b-\	.	<	8cc\	Łu-	.	.
!	!	!	!	!	!	!	!LO:TX:a:i:t=stringendo	!	!	!	!	!	!
8A-\	.	.	.	8A-\	.	.	8b-\	.	.	8dd\	-pu!	.	.
8G\	.	.	.	8G\	.	.	8b-\	.	.	8ee-\	cu-	.	.
8E-\	.	.	.	8E-\	.	.	8b-\	.	.	8gg\	-pu!	.	.
=16	=16	=16	=16	=16	=16	=16	=16	=16	=16	=16	=16	=16	=16
8C\	.	.	.	8G\	.	.	8b-\	.	.	8ee-\	Łu-	.	.
!	!	!	!	!	!	!LO:HP:b	!	!	!	!	!	!	!
8C\	.	.	.	8G\	.	<	8b-\	.	.	8ee-\	-pu!	.	<
8F\	.	.	.	8F\	.	.	8a\	.	.	8cc\	cu-	.	.
8F\	.	.	.	8F\	.	[	8a\	.	[	8cc\	-pu!	.	[
=17	=17	=17	=17	=17	=17	=17	=17	=17	=17	=17	=17	=17	=17
!	!	!	!	!	!	!LO:DY:b	!	!	!LO:DY:a	!	!	!	!LO:DY:a
16BB-/	.	.	.	16F\	.	ff	16b-\	.	ff	16dd\	Łu-	.	ff
16BB-/	.	.	.	16F\	.	.	16b-\	.	.	16dd\	-pu!	.	.
8BB-/	.	.	.	8F\	.	.	8b-\	.	.	8dd\	cup!	.	.
4r	.	.	.	4r	.	.	4r	.	.	4r	.	.	.
=:|!	=:|!	=:|!	=:|!	=:|!	=:|!	=:|!	=:|!	=:|!	=:|!	=:|!	=:|!	=:|!	=:|!
*-	*-	*-	*-	*-	*-	*-	*-	*-	*-	*-	*-	*-	*-
!!!system-decoration: [(s1,s2,s3,s4)]
!!!ENC: Berenika Jozajtis
!!!END: 2022-02-15
!!!ENC: Marta Lawrence
!!!END: 2022-02-16
!!!ENC-iiif: Antoni Szymański
!!!END-iiif: 2022-09-01
